X: 34763
T: Road To Monalea, The
R: reel
M: 4/4
K: Ddorian
|:dcAc d3e|dcAG ED D2|EGAG cded|cAGE EDD2|
dcAc d3e|dcAG EDD2|EGAG cded|cAGE EDD2:|
|:dcAc d2 cd|eaag e3a|gede c3d|eaag e2 c^c|
dcAc d2 cd|eaag e2 de|cAGA cded|cAGE ED D2:|

